X: 722
T: Ey Nur-i Basar
C: Numan Ağa
O: Turkey
F: http://compmusic.upf.edu/node/140
N: ussak--kalenderi--yuruksemai--ey_nur-i--numan_aga
N: makam= ussak
N: form= kalenderi
N: usul= yuruksemai = 6/8
M: 6/8
L: 1/16
K: C _2/4B   
Q: 1/4=120
%%MIDI tuningsystem comma53
A6cd e4  | d2d2 e2e2 e3d  | e2f2 g2e2 e3d  | \
w:   |   |   | 
d3c efed dc_1/4B/A/B  | 
w:   | 
c4 d2d/c/_1/4B/A/ B2z2  | G2ef eddc d4  | \
w:   |   | 
c2d2 efed d4  | 
w:   | 
c2d2 efed dc_1/4B/A/B  | c4 d2d/c/_1/4B/A/ B2z2  | \
w:   |   | 
G2G2 A2_1/4B2 c2BA  | 
w:   | 
A2G2 Gfed dcc_1/4B  | A2_1/4B2 d2cB B3A  | \
w:   |   | 
A8 z4  | ^F2G2 A2A2 A4  | 
w:   |   | 
_1/4BAB2 c2BA A4  | G4 eddc c_1/4BAB  | \
w:   |   | 
c4 d2d/c/_1/4B/A/ B2z2  | 
w:   | 
c2d2 d2dc d4  | c2d2 efed dc_1/4B/A/B  | \
w:   |   | 
d2c2 dedc _1/4BAB2  | 
w:   | 
G2G2 A2_1/4B2 c2BA  | A2G2 Gfed dcc_1/4B  | \
w:   |   | 
A2_1/4B2 d2cd cBBA  | 
w:   | 
A4 d2cd e2z2  | d2d2 e2e2 e3d  | e2f2 g2e2 e3d  | \
w:   |   |   | 
d3c e2d2 c_1/4BBA  | 
w:   | 
A6cd e4  | d2d2 e2e2 e3d  | e2f2 g2e2 e3d  | \
w:   |   |   | 
d3c efed dc_1/4B/A/B  | 
w:   | 
c4 d2d/c/_1/4B/A/ B2z2  | G2ef eddc d4  | \
w:   |   | 
c2d2 efed d4  | 
w:   | 
c2d2 efed dc_1/4B/A/B  | c4 d2d/c/_1/4B/A/ B2z2  | \
w:   |   | 
G2G2 A2_1/4B2 c2BA  | 
w:   | 
A2G2 Gfed dcc_1/4B  | A2_1/4B2 d2cB B3A  | \
w:   |   | 
A8 z4  | |


